svgs/regular/truck-pickup.svg

<svg xmlns="http://www.w3.org/2000/svg" viewBox="0 0 640 512"><!--! Font Awesome Pro 6.4.2 by @fontawesome - https://fontawesome.com License - https://fontawesome.com/license (Commercial License) Copyright 2023 Fonticons, Inc. --><path d="M272 88v88H446.9L374.7 83.1c-1.5-1.9-3.8-3.1-6.3-3.1H280c-4.4 0-8 3.6-8 8zM412.6 53.6L507.7 176H552c30.9 0 56 25.1 56 56v88h8c13.3 0 24 10.7 24 24s-10.7 24-24 24h-8H560h-1.3c.9 5.2 1.3 10.5 1.3 16c0 53-43 96-96 96s-96-43-96-96c0-5.5 .5-10.8 1.3-16H270.7c.9 5.2 1.3 10.5 1.3 16c0 53-43 96-96 96s-96-43-96-96c0-5.5 .5-10.8 1.3-16H80 32 24c-13.3 0-24-10.7-24-24s10.7-24 24-24h8V232c0-30.9 25.1-56 56-56H224V88c0-30.9 25.1-56 56-56h88.3c17.3 0 33.6 8 44.2 21.6zM96 320h8.4c17.6-19.6 43.1-32 71.6-32s54 12.4 71.6 32H256 384h8.4c17.6-19.6 43.1-32 71.6-32s54 12.4 71.6 32H544h16V232c0-4.4-3.6-8-8-8H496.2h-.5H248 88c-4.4 0-8 3.6-8 8v88H96zm128 64a48 48 0 1 0 -96 0 48 48 0 1 0 96 0zm240 48a48 48 0 1 0 0-96 48 48 0 1 0 0 96z"/></svg>

<svg xmlns="http://www.w3.org/2000/svg" viewBox="0 0 640 512"><!--! Font Awesome Pro 6.1.1 by @fontawesome - https://fontawesome.com License - https://fontawesome.com/license (Commercial License) Copyright 2022 Fonticons, Inc. --><path d="M412.6 53.62L507.7 176H552C582.9 176 608 201.1 608 232V320H616C629.3 320 640 330.7 640 344C640 357.3 629.3 368 616 368H558.7C559.5 373.2 560 378.5 560 384C560 437 517 480 464 480C410.1 480 368 437 368 384C368 378.5 368.5 373.2 369.3 368H270.7C271.5 373.2 272 378.5 272 384C272 437 229 480 176 480C122.1 480 80 437 80 384C80 378.5 80.45 373.2 81.33 368H24C10.75 368 0 357.3 0 344C0 330.7 10.75 320 24 320H32V232C32 201.1 57.07 176 88 176H224V88C224 57.07 249.1 32 280 32H368.3C385.6 32 401.9 39.98 412.6 53.62H412.6zM272 176H446.9L374.7 83.09C373.1 81.14 370.8 80 368.3 80H279.1C275.6 80 271.1 83.58 271.1 88L272 176zM104.4 320C122 300.4 147.6 288 176 288C204.4 288 229.1 300.4 247.6 320H392.4C410 300.4 435.6 288 464 288C492.4 288 517.1 300.4 535.6 320H560V232C560 227.6 556.4 224 552 224H88C83.58 224 80 227.6 80 232V320H104.4zM176 336C149.5 336 128 357.5 128 384C128 410.5 149.5 432 176 432C202.5 432 224 410.5 224 384C224 357.5 202.5 336 176 336zM464 432C490.5 432 512 410.5 512 384C512 357.5 490.5 336 464 336C437.5 336 416 357.5 416 384C416 410.5 437.5 432 464 432z"/></svg>
